X:1
T: Quickstep
P:Kerr's 4th #193
R:Jig
Q:180
K:G
M:6/8
L:1/16
|:B6 c2B2c2|d2B2G2 G2B2d2|e2c2e2 g2f2e2|d2e2d2 c2B2A2|
B2A2B2 c2B2c2|d2B2G2 G2B2d2|e2f2g2 a2f2d2|1g6 g2d2c2:|2g6 g2f2g2|
|:a4f2 d2f2a2|b4g2 d2g2b2|c'4a2 b4g2|a4f2 d2f2g2|
|1a4f2 d2f2a2|b4g2 d2g2b2|a2f2d2 g2e2^c2|d6 d2f2g2:|
|2a4f2 d2f2a2|b2g2d2 d2f2g2|a2b2a2 g2f2e2|d6d6||
